ix/save-2_outline.svg

<svg viewBox="0 0 24 24" fill="none" xmlns="http://www.w3.org/2000/svg" height="1em" width="1em">
  <path d="M3.30023 22.7501C2.94023 22.7501 2.59022 22.6601 2.29022 22.4801C1.62022 22.0901 1.24023 21.3101 1.24023 20.3401V8.98013C1.24023 6.85013 2.97022 5.12012 5.10022 5.12012H12.8802C15.0102 5.12012 16.7402 6.85013 16.7402 8.98013V20.3401C16.7402 21.3101 16.3602 22.0801 15.6902 22.4801C15.0202 22.8701 14.1602 22.8301 13.3102 22.3601L9.38025 20.1701C9.19025 20.0601 8.79022 20.0601 8.60022 20.1701L4.67023 22.3601C4.21023 22.6201 3.74023 22.7501 3.30023 22.7501ZM5.11023 6.63013C3.81023 6.63013 2.75024 7.69011 2.75024 8.99011V20.3501C2.75024 20.7601 2.87024 21.0801 3.06024 21.1901C3.25024 21.3001 3.59026 21.2501 3.95026 21.0501L7.88025 18.8601C8.52025 18.5101 9.48024 18.5101 10.1202 18.8601L14.0502 21.0501C14.4102 21.2501 14.7402 21.3001 14.9402 21.1901C15.1302 21.0801 15.2502 20.7601 15.2502 20.3501V8.99011C15.2502 7.69011 14.1903 6.63013 12.8903 6.63013H5.11023Z" fill="#292D32"/>
  <path d="M14.69 22.7501C14.25 22.7501 13.79 22.6201 13.32 22.3701L9.39001 20.1801C9.20001 20.0801 8.78998 20.0801 8.59998 20.1801L4.67999 22.3701C3.82999 22.8401 2.95999 22.8801 2.29999 22.4901C1.62999 22.1001 1.25 21.3201 1.25 20.3601V9.00012C1.25 6.87012 2.97999 5.14014 5.10999 5.14014H12.89C15.02 5.14014 16.75 6.87012 16.75 9.00012V20.3601C16.75 21.3201 16.37 22.1001 15.7 22.4901C15.4 22.6601 15.06 22.7501 14.69 22.7501ZM9 18.6001C9.4 18.6001 9.79 18.6901 10.12 18.8701L14.05 21.0601C14.41 21.2601 14.75 21.3101 14.94 21.1901C15.13 21.0801 15.25 20.7601 15.25 20.3501V8.99011C15.25 7.69011 14.19 6.63013 12.89 6.63013H5.10999C3.80999 6.63013 2.75 7.69011 2.75 8.99011V20.3501C2.75 20.7601 2.87 21.0801 3.06 21.1901C3.25 21.3001 3.59001 21.2501 3.95001 21.0501L7.88 18.8601C8.20001 18.6901 8.6 18.6001 9 18.6001Z" fill="#292D32"/>
  <path d="M20.69 18.8698C20.25 18.8698 19.79 18.7397 19.32 18.4897L15.63 16.4297C15.39 16.2997 15.25 16.0498 15.25 15.7798V8.99976C15.25 7.69976 14.19 6.63977 12.89 6.63977H8C7.59 6.63977 7.25 6.29977 7.25 5.88977V5.11975C7.25 2.98975 8.97999 1.25977 11.11 1.25977H18.89C21.02 1.25977 22.75 2.98975 22.75 5.11975V16.4798C22.75 17.4398 22.37 18.2197 21.7 18.6097C21.4 18.7797 21.06 18.8698 20.69 18.8698ZM16.75 15.3297L20.05 17.1797C20.41 17.3797 20.74 17.4298 20.94 17.3098C21.14 17.1898 21.25 16.8798 21.25 16.4698V5.10974C21.25 3.80974 20.19 2.74976 18.89 2.74976H11.11C9.80999 2.74976 8.75 3.80974 8.75 5.10974V5.12976H12.89C15.02 5.12976 16.75 6.85975 16.75 8.98975V15.3297Z" fill="#292D32"/>
</svg>

<svg viewBox="0 0 24 24" fill="none" xmlns="http://www.w3.org/2000/svg" height="1em" width="1em">
  <path d="M3.3 22.75c-.36 0-.71-.09-1.01-.27-.67-.39-1.05-1.17-1.05-2.14V8.98c0-2.13 1.73-3.86 3.86-3.86h7.78c2.13 0 3.86 1.73 3.86 3.86v11.36c0 .97-.38 1.74-1.05 2.14-.67.39-1.53.35-2.38-.12l-3.93-2.19c-.19-.11-.59-.11-.78 0l-3.93 2.19c-.46.26-.93.39-1.37.39ZM5.11 6.63c-1.3 0-2.36 1.06-2.36 2.36v11.36c0 .41.12.73.31.84.19.11.53.06.89-.14l3.93-2.19c.64-.35 1.6-.35 2.24 0l3.93 2.19c.36.2.69.25.89.14.19-.11.31-.43.31-.84V8.99c0-1.3-1.06-2.36-2.36-2.36H5.11Z" fill="#292D32"/>
  <path d="M14.69 22.75c-.44 0-.9-.13-1.37-.38l-3.93-2.19c-.19-.1-.6-.1-.79 0l-3.92 2.19c-.85.47-1.72.51-2.38.12-.67-.39-1.05-1.17-1.05-2.13V9c0-2.13 1.73-3.86 3.86-3.86h7.78c2.13 0 3.86 1.73 3.86 3.86v11.36c0 .96-.38 1.74-1.05 2.13-.3.17-.64.26-1.01.26ZM9 18.6c.4 0 .79.09 1.12.27l3.93 2.19c.36.2.7.25.89.13.19-.11.31-.43.31-.84V8.99c0-1.3-1.06-2.36-2.36-2.36H5.11c-1.3 0-2.36 1.06-2.36 2.36v11.36c0 .41.12.73.31.84.19.11.53.06.89-.14l3.93-2.19c.32-.17.72-.26 1.12-.26Z" fill="#292D32"/>
  <path d="M20.69 18.87c-.44 0-.9-.13-1.37-.38l-3.69-2.06a.732.732 0 0 1-.38-.65V9c0-1.3-1.06-2.36-2.36-2.36H8c-.41 0-.75-.34-.75-.75v-.77c0-2.13 1.73-3.86 3.86-3.86h7.78c2.13 0 3.86 1.73 3.86 3.86v11.36c0 .96-.38 1.74-1.05 2.13-.3.17-.64.26-1.01.26Zm-3.94-3.54 3.3 1.85c.36.2.69.25.89.13.2-.12.31-.43.31-.84V5.11c0-1.3-1.06-2.36-2.36-2.36h-7.78c-1.3 0-2.36 1.06-2.36 2.36v.02h4.14c2.13 0 3.86 1.73 3.86 3.86v6.34Z" fill="#292D32"/>
</svg>
